X: 625
T: Edersen de Cefâ Eğer
C: Şevki Bey
O: Turkey
F: http://compmusic.upf.edu/node/140
N: yegah--sarki--nimsofyan--edersen_de--sevki_bey
N: makam= yegah
N: form= sarki
N: usul= nimsofyan = 2/4
M: 2/4
L: 1/16
K: C _2/4B ^f  
Q: 1/4=90
%%MIDI tuningsystem comma53
.d2d^3/4c dcd=B  | A=BAG ^3/4FED2  | \
w:  ARANAĞME  |   | 
.d2dA =BAB^3/4c  | 
w:   | 
de^3/4fe d^3/4cd2  | .d2d^3/4c dcd=B  | \
w:   |   | 
A=BAG ^3/4F2A2  | ^3/4F2DF E2^3/4CE  | 
w:   |   | 
D3/2E/^3/4FG AB^3/4ce  | .d2d^3/4c dcd=B  | \
w:   |  ARANAĞME  | 
A=BAG ^3/4FED2  | 
w:   | 
.d2dA =BAB^3/4c  | de^3/4fe d^3/4cd2  | \
w:   |   | 
.d2d^3/4c dcd=B  | 
w:   | 
A=BAG ^3/4F2A2  | ^3/4F2DF E2^3/4CE  | \
w:   |   | 
D4 z4  | d4 d2d2  | d^3/4cde dc=BA  | 
w:   |  E der sen   |  de   | 
=Bg^3/4fe d^3/4cBc  | d2.A2 .^3/4F2.D2  | \
w:  ce *  *  *  fâ  *  e  |  ğer   SAZ  | 
ded^3/4c d2e2  | ^3/4fefg .a4  | 
w:  E *  *  *  der sen   |  de   | 
aga=b agg^3/4f  | ^3/4f{a}gfe .d4  | \
w:  ce *  *  *  fâ  *  e  |  ğer    | 
g^3/4fga gfe2  | ^3/4f/g/f/e/fg fed2  | 
w:  Lût *  *  *  fun  *  yi  |  ne   | 
eg^3/4fe d^3/4cBc  | d6z2  | A3e edc=B  | \
w:  dün *  *  *  ya  *  de  |  ğer    |  Lût *  fun  *  yi  | 
AGA=B cBAG  | 
w:  ne   | 
^3/4FEDF ED^3/4CE  | D4 z4  | d3^3/4c c_BBA  | \
w:  dün *  *  *  ya  *  de  |  ğer    |  Cevr_ *  et *  sen   | 
A^3/4GA_B AG=F2  | 
w:  de   | 
^3/4GA_Bd ^3/4cBBA  | A_BA^3/4G =FED2  | \
w:  et *  *  *  mem  *  ke  |  der    | 
d3^3/4c d2e2  | ^3/4fgfe fga2  | 
w:  Cevr_ *  et sen   |  de   | 
aga=b agg^3/4f  | ag^3/4fe d^3/4cd2  | \
w:  et *  *  *  mem  *  ke  |  der    | 
g^3/4fga gfe2  | 
w:  Lût *  *  *  fun  *  yi  | 
^3/4f/g/f/e/fg fed2  | eg^3/4fe d^3/4cBc  | \
w:  ne   |  dün *  *  *  ya  *  de  | 
d6z2  | A3e edc=B  | 
w:  ğer    |  Lût *  fun  *  yi  | 
AGA=B cBAG  | ^3/4FEDF ED^3/4CE  | D4 z4  | |


